X: 3385
M: 2/4
L: 1/16
K: D
fg |\
a^gab a=gfe | d2d2 dcde | f2f2 fagf | edef e2(fg) |\
a^gab a=gfe | d2d2 dcde | f2f2 edef | d2f2d2 :|
|: A2 |\
dcde f2d2 | cdec A2(Bc) | dcde f2d2 | cdec A2A2 |\


